!!!COM: Beethoven, Ludwig van
!!!CDT: 1770///-1827///
!!!OTL: Piano Sonata no. 7 in D major
!!!OPS: 10
!!!ONM: 3
!!!OMV: 1
!!!OMD: Presto
**kern	**kern	**dynam
*Ipiano	*Ipiano	*Ipiano
*staff2	*staff1	*staff1
*>[A,A,B]	*>[A,A,B]	*>[A,A,B]
*>norep[A,B]	*>norep[A,B]	*>norep[A,B]
*>A	*>A	*>A
*clefF4	*clefG2	*clefG2
*k[f#c#]	*k[f#c#]	*k[f#c#]
*D:	*D:	*D:
*M4/4	*M4/4	*M4/4
*MM240	*MM240	*MM240
!LO:S:b	!	!
(4DD\	4Dj (4d	p
=1	=1	=1
4CC#')	4c#')	.
4BBB'	4B'	.
4AAA'	4A'	.
4CC#'	4c#'	.
=2	=2	=2
4DD'	4d'	.
4FF#'	4f#'	.
4AAA' 4AA'	4A' 4a'	.
4CC#' 4C#'	4c#' 4cc#'	.
=3	=3	=3
4DD' 4D'	4d'\ 4dd'\	.
4EE' 4E'	4e'\ 4ee'\	.
4FF#' 4F#'	4f#' 4ff#'	.
4GG' 4G'	4g' 4gg'	.
=4	=4	=4
2.AA; 2.A;	2.a; 2.aa;	sf
*clefG2	*	*
!LO:S:a	!LO:S:b	!
(4f# 4a	(4dd	p
=5	=5	=5
*	*^	*
4e 4g	2r	4cc#	.
4d 4f#	.	4b	.
4c# 4e	4r	4a	.
4d 4f#	4aa	4b	.
*clefF4	*	*	*
=6	=6	=6	=6
4c# 4e	2.aa	4a	.
4B 4d	.	4g	.
4A 4c#	.	4f#	.
4B 4d	4r	4g	.
=7	=7	=7	=7
4A 4c#	2r	4f#	.
4G 4B	.	4e	.
4F# 4A	4r	4d	.
4G 4B	4dd	4e)	.
*	*v	*v	*
=8	=8	=8
4F# 4A	(4d 4dd	.
4E 4G	4c# 4cc#	.
4D 4F#)	4d) 4dd	.
4r	[4d# [4dd#	.
=9	=9	=9
4GG 4G	(4d#] 4dd#]	.
4r	4e) 4ee	.
4AA/ 4A/	4g' 4cc#'	.
4r	4a'	.
=10	=10	=10
4DD 4D	4f# 4ddn	.
4r	4r	.
2r	4r	.
.	8ff#L	f
.	8dddJ	.
=11	=11	=11
2r	8eeL	.
.	8ccc#	.
.	8dd	.
.	8bbJ	.
4r	8cc#L	.
.	8aa	.
4AAA' 4AA'	8dd	.
.	8bbJ	.
=12	=12	=12
[1AAAz [1AAz	8cc#L	.
.	8aa	.
.	8b	.
.	8ggJ	.
.	8aL	.
.	8ff#	.
.	8b	.
.	8ggJ	.
=13	=13	=13
2.AAA] 2.AA]	8aL	.
.	8ff#	.
.	8g	.
.	8eeJ	.
.	8f#L	.
.	8dd	.
4AAA#' 4AA#'	8g	.
.	8eeJ	.
=14	=14	=14
4BBB' 4BB'	8f#L	.
.	8dd	.
4AAAn' 4AAn'	8f#	.
.	8dd#J	.
4GGG' 4GG'	8gL	.
.	8ee	.
4FFF#' 4FF#'	8a	.
.	8ff#J	.
=15	=15	=15
4EEE' 4EE'	8bL	.
.	8gg	.
4r	8ff#	.
.	8aaJ	.
4AAA' 4AA'	8ggL	.
.	8bbJ	.
4r	4e 4g 4cc#	.
=16	=16	=16
4DD' 4D'	4f# 4dd	.
4r	4r	.
4r	4r	.
*	*clefF4	*
4DD'	8r	.
.	8D 8d	p
=17	=17	=17
4CC#'	8r	.
.	8C# 8c#	.
4BBB'	8r	.
.	8B	.
4AAA'	8r	.
.	8A	.
4CC#'	8r	.
.	8C# 8c#	.
=18	=18	=18
!	!LO:TX:b:i:t=cresc.	.
4DD'	8r	.
.	8D 8d	<
4FF#'	8r	.
.	8F# 8f#	.
4AAA' 4AA'	8r	.
*	*clefG2	*
.	8A 8a	.
4CC#' 4C#'	8r	.
.	8c# 8cc#	.
=19	=19	=19
4DD' 4D'	8r	.
.	8d\ 8dd\	.
4EE' 4E'	8r	.
.	8e\ 8ee\	.
4FF#' 4F#'	8r	.
.	8f# 8ff#	.
4GG' 4G'	8r	.
.	8g 8gg	.
=20	=20	=20
4AA' 4A'	8r	.
.	8a 8aa	.
4AA#' 4A#'	8r	.
.	8a# 8aa#	.
4BB' 4B'	8r	.
.	8b 8bb	.
4C#' 4c#'	8r	.
.	8cc# 8ccc#	.
=21	=21	=21
4D' 4d'	4dd' 4ddd'	ff
4r	4r	.
4E' 4e'	4ee' 4eee'	ff
4r	4r	.
=22	=22	=22
2.F#; 2.f#;	2.ff#; 2.fff#;	ff
4r	4f#	p
=23	=23	=23
(8BBL	(2dd	.
8D	.	.
8F#	.	.
8BJ)	.	.
(8AA#L	2ff#)	.
8E	.	.
8F#	.	.
8c#J)	.	.
=24	=24	=24
(8BBL	(2dd	.
8D	.	.
8F#	.	.
8BJ)	.	.
(8BBL	8eeL	.
8D	8dd	.
8F#	8cc#	.
8BJ)	8bJ)	.
=25	=25	=25
(8C#L	4a#'	.
8E	.	.
8F#	4a#'	.
8A#J)	.	.
(8BBL	(8cc#L	.
8D	8b	.
8F#	8a#	.
8BJ)	8bJ)	.
=26	=26	=26
(8FF#L	(2cc#	.
8C#	.	.
8F#	.	.
8A#J)	.	.
(8FF#L	4f#')	.
8C#	.	.
8F#	4f#'	.
8A#J)	.	.
=27	=27	=27
(8BBL	(2dd	.
8D	.	.
8F#	.	.
8BJ)	.	.
8AA#L	2ff#)	.
(8E	.	.
8F#	.	.
8c#J)	.	.
=28	=28	=28
(8BBL	(2dd	.
8D	.	.
8F#	.	.
8BJ)	.	.
(8DL	8eeL	.
8F#	8dd	.
8B	8cc#	.
8F#J)	8bJ)	.
=29	=29	=29
(8C#L	4an'	.
8F#	.	.
8A	4a'	.
(8F#J)	.	.
8C#L	(8aL	.
8E#	8g#	.
8G#	8f#	.
8E#J)	8g#J)	.
=30	=30	=30
(8FF#L	4f#	.
8AA	.	.
8C#	4r	.
8F#J)	.	.
4FF#	4r	.
4r	4c#	.
=31	=31	=31
*^	*	*
4r	[1C#	8g#L	.
.	.	8c#	.
2G# (2B	.	8e#	.
.	.	8g#J	.
.	.	8aL	.
.	.	8c#	.
4F# 4A	.	8f#	.
.	.	8aJ	.
=32	=32	=32	=32
4E# 4G#)	4C#]	8bL	.
.	.	8c#	.
4r	2.ryy	8e#	.
.	.	8g#J	.
2r	.	8cc#L	.
.	.	8b	.
.	.	8a	.
.	.	8g#J	.
*v	*v	*	*
=33	=33	=33
4F#' 4A'	8aL	.
.	8f#	.
4F#' 4A'	8e#	.
.	8f#J	.
4G#' 4B'	8bL	.
.	8f#	.
4G#' 4B'	8e#	.
.	8f#J	.
=34	=34	=34
4A' 4c#'	8cc#L	.
.	8a	.
4r	8g#	.
.	8aJ	.
2r	8bL	.
.	8a	.
.	8g#	.
.	8aJ	.
=35	=35	=35
*^	*	*
4r	[1E	8bL	.
.	.	8en	.
2B (2d	.	8g#	.
.	.	8bJ	.
.	.	8cc#L	.
.	.	8e	.
4A 4c#	.	8a	.
.	.	8cc#J	.
=36	=36	=36	=36
4G# 4B)	4E]	8ddL	.
.	.	8e	.
4r	4ryy	8g#	.
.	.	8bJ	.
2r	2ryy	8eeL	.
.	.	8dd	.
.	.	8cc#	.
.	.	8bJ	.
*v	*v	*	*
=37	=37	=37
4A' 4c#'	8cc#L\	.
.	8a\	.
4A' 4c#'	8g#\	.
.	8aJ\	.
4B' 4d'	8ddL\	.
.	8a\	.
4B' 4d'	8g#\	.
.	8aJ\	.
=38	=38	=38
4c#' 4e'	8eeL\	.
.	8a\	.
4r	8g#\	.
.	8aJ\	.
2r	8bL	.
.	8cc#	.
.	8dd	.
.	8eeJ	.
*clefG2	*	*
=39	=39	=39
8r	[1ff#	.
8dL	.	.
8c#	.	.
8dJ	.	.
8eL	.	.
8f#	.	.
8g#	.	.
8aJ	.	.
=40	=40	=40
[1b	8ff#L]	.
.	8ff#	.
.	8ee#	.
.	8ff#J	.
.	8gg#L	.
.	8aa	.
.	8bb	.
.	8ccc#J	.
=41	=41	=41
*	*^	*
8bL]\	[1ddd	2r	.
8b\	.	.	.
8a#\	.	.	.
8bJ\	.	.	.
8cc#L	.	4r	.
8ddJ	.	.	.
4r	.	(8eeL	.
.	.	8ff#J	.
=42	=42	=42	=42
8r	1ddd]	1gg#)	.
8eL	.	.	.
8d#	.	.	.
8eJ	.	.	.
8f#L	.	.	.
8g#	.	.	.
8a	.	.	.
8bJ	.	.	.
*clefF4	*	*	*
*	*v	*v	*
=43	=43	=43
8r	1cc# 1aa 1ccc#	sf
8AL	.	.
8G#	.	.
8AJ	.	.
8BL	.	.
8c#	.	.
8d	.	.
8eJ	.	.
=44	=44	=44
8e#	1b 1cc# 1ee# 1gg# 1bb	sf
8C#L\	.	.
8BB#\	.	.
8C#J\	.	.
8D#L	.	.
8E#	.	.
8F#	.	.
8G#J	.	.
=45	=45	=45
8F#L	4a 4cc# 4aa	ff
8A	.	.
8F#	8gg#L	>
8AJ	8ff#J	)
8F#L	8eeL	)
8A	8dd#	)
8F#	8cc#	)
8AJ	8bJ	)
=46	=46	=46
8FF#L	8aL	)
8D#	8g#	)
8FF#	8f#	)
8D#J	8eJ	)
8FF#L	8d#L	)
8D#	8c#	)
8FF#	8B	)
8D#J	8AJ	]
=47	=47	=47
8EEL	8G#L	p
8E	8F#	.
8EE	8E	.
8EJ	8F#J	.
8EEL	8G#L	.
8E	8A	.
8EE	8B	.
8EJ	8c#J	.
=48	=48	=48
8EEL	8dnL	.
8E	8c#	.
8EE	8B	.
8EJ	8c#J	.
8DDL	8dL	.
8D	8e	.
8DD	8f#	.
8DJ	8g#J	.
=49	=49	=49
!	!LO:TX:b:i:t=cresc.	.
8CC#L	8aL	<
8AA	8a#	.
8CC#	8b	.
8AAJ	8b#J	.
8CC#L	8cc#L	.
8AA	8dd	.
8CC#	8dd#	.
8AAJ	8eeJ	.
=50	=50	=50
8DDL	8ee#L	.
8AA	8ff#	.
8DD	8ggn	.
8AAJ	8gg#J	.
8DD#L	8aaL	.
8AA	8aa#	.
8DD#	8bb	.
8AAJ	8bb#J	.
=51	=51	=51
8EEL	(6ccc#	f
8AA	.	.
.	6ddd	.
8EE	.	.
.	6ddd#)	.
8AAJ	.	.
8EEL	4eee'	.
8AA	.	.
8EE	4a'	.
8AAJ	.	.
=52	=52	=52
8EEL	1bT	.
8AA	.	.
8EE	.	.
8AAJ	.	.
8EEL	.	.
8GG#	.	.
8EE	.	.
8GG#J	.	.
.	16aqLL	.
.	16bqJJ	.
=53	=53	=53
4AA	4a	.
4AAA	4r	.
.	(dd8q/	.
4r	(4cc#)	p
4A (4c#	8bL	.
.	8aJ)	.
=54	=54	=54
4B 4d	(4g#	.
4E)	4e)	.
.	(dd8q/	.
4r	(4cc#)	.
4A (4c#	8bL	.
.	8aJ)	.
=55	=55	=55
4G# 4B	(4dd#	.
4E)	4ee)	.
.	(ddn8q/	.
4r	(4cc#)	.
4A (4c#	8bL	.
.	8aJ)	.
=56	=56	=56
4B 4d)	4g#	.
4E	4e	.
4r	4ff#'	.
4F#'	4f#'	.
=57	=57	=57
4r	4dd'	.
4D'	4d'	.
4r	4b'	.
4BB'	4B'	.
=58	=58	=58
4r	4g#'	.
4GG#'	4G#'	.
4r	4a'	.
4AA'	4A'	.
=59	=59	=59
*^	*	*
4r	4r	4d'	.
4D'	4DD'	4r	.
4r	4r	4e'	.
4E'	4EE'	4r	.
*v	*v	*	*
=60	=60	=60
4AA'	4A'	.
4AAA'	4r	.
*clefG2	*	*
.	(ddd8q/	.
4r	(4cccn)	.
4a (4ccn	8bbL	.
.	8aaJ)	.
=61	=61	=61
4b 4dd	(4gg#	.
4e)	4ee)	.
.	(ddd8q/	.
4r	(4cccn)	.
(4a/ 4ccn/	8bbL	.
.	8aaJ)	.
=62	=62	=62
4g# 4b	(4ddd#	.
4e)	4eee)	.
.	(ddd#8q/	.
4r	(4cccn)	.
4a (4ccn	8bbL	.
.	8aaJ)	.
=63	=63	=63
4b 4dd	(4gg#	.
4e)	4ee)	.
4r	4fffn'	.
4fn'	4ffn'	.
=64	=64	=64
4r	4ddd'	.
4d'	4dd'	.
4r	4bb'	.
4B'	4b'	.
=65	=65	=65
4r	4gg#'	.
4G#'	4g#'	.
2r	2r	.
=66	=66	=66
*	*^	*
2r	2r	2ryy	.
4r	4r	4ryy	.
(4a	[4ee	4cc#X	.
=67	=67	=67	=67
4g#	(4ee]	2.dd	.
4f#	2bbz	.	.
4e)	.	.	.
(4a	4aa)	4cc#	.
=68	=68	=68	=68
4g#	(4ee	2.dd	.
4f#	2bbz	.	.
4e)	.	.	.
(4a	4aa)	4cc#	.
=69	=69	=69	=69
4d	4r	2a 2b	.
4d#	4ff#	.	.
4e)	4r	2g# 2b	.
*clefF4	*	*	*
(4E	4ee	.	.
=70	=70	=70	=70
4A	(8cc#L	4a	.
.	8dd	.	.
4E	8cc#	4r	.
.	8bJ	.	.
4C#)	4a)	4r	.
(4AA	[4e	4A 4c#	pp
=71	=71	=71	=71
4GG#	2.e]	2.B 2.d	.
4FF#	.	.	.
4EE)	.	.	.
(4AA	[4e	4A 4c#	.
=72	=72	=72	=72
4GG#	2.e]	2.B 2.d	.
4FF#	.	.	.
4EE)	.	.	.
(4GGn	4c#	4A	.
=73	=73	=73	=73
!	!LO:TX:b:i:t=cresc.	!	!
4FF#	2.d	2.A	<
4EE	.	.	.
4DD)	.	.	.
(4GG	4c#	[4A	.
=74	=74	=74	=74
4FF#	2.d	2.A]	.
4EE	.	.	.
4DD)	.	.	.
(4FFn	(4B	[4Gn	.
=75	=75	=75	=75
*^	*	*	*
2.ryy	4EE/	4cn	2.G]	.
.	4DD/	4d	.	.
.	4CCn/)	4e)	.	.
4Fn	([4Gn	[4gn	4B	.
=76	=76	=76	=76	=76
2.G]	4E	2.g]	4cn	.
.	4D	.	4d	.
.	4Cn)	.	4e	.
(4B	4r	(4ffn	[4g	sf
=77	=77	=77	=77	=77
4cn\	2.ryy	2.g]	4ee	.
4d\	.	.	4dd	.
4e\)	.	.	4ccn)	.
*clefG2	*	*	*	*
4fn	([4g	[4gg	4b	.
=78	=78	=78	=78	=78
2.g]	4e	4ccn	2.gg]	.
.	4d	4dd	.	.
.	4cn)	4ee	.	p
*clefF4	*	*	*	*
!LO:S:b	!	!	!	!
([4AA	4GG	4c#X	[4A	.
=79	=79	=79	=79	=79
2.AA]	4FFn	4d	2.A]	.
.	4EE	4e	.	.
.	4DD)	4fn	.	.
([4A	4G	[4a	4c#	.
=80	=80	=80	=80	=80
2.A]	4Fn	2.a]	4d	.
.	4E	.	4e	.
.	4D)	.	4fn	.
*clefG2	*	*	*	*
4r	(4c#	4gg	[4a	.
*v	*v	*	*	*
=81	=81	=81	=81
4d	4ffn	2.a]	.
4e	4ee	.	.
4f#)	4dd	.	.
(4g [4a	[4aa	4cc#	.
=82	=82	=82	=82
*^	*	*	*
2.a]	4fn	2.aa]	4dd	.
.	4e	.	4ee	.
.	4d)	.	4ffn	.
*clefF4	*	*	*	*
[4Fn	(4E-	[4fn	4A	p
=83	=83	=83	=83	=83
2.Fn]	4D	2.fn]	4B-	.
.	4Cn	.	4cn	.
.	4BB-)	.	4d	.
*clefG2	*	*	*	*
([4fn	4e-	[4ffn	4a	.
=84	=84	=84	=84	=84
2.f]	4d	2.ff]	4b-	.
.	4cn	.	4ccn	.
.	4B-)	.	4dd	.
4r	(4ee-	4aa	[4ffn	.
*v	*v	*	*	*
=85	=85	=85	=85
4dd	4bb-	2ff]	p
4ccn)	4cccn	.	.
4b-'	[2ddd	4bb-'	.
4a'	.	4aa'	.
=86	=86	=86	=86
!	!LO:TX:b:i:t=cresc.	!	!
4g#'	2ddd]	4gg#'	<
4f#'	.	4ff#X'	.
4e'	2gg#X 2bbn	4ee'	.
4d'	.	4dd'	.
*	*v	*v	*
=87	=87	=87
4c#X' 4cc#X'	1eez 1aaz 1ccc#Xz 1eeez	.
4B' 4b'	.	.
4A' 4a'	.	.
4G#' 4g#'	.	.
*clefF4	*	*
=88	=88	=88
4F#' 4f#'	1az 1cc#z 1ff#z 1aaz	.
4E' 4e'	.	.
4D' 4d'	.	.
4C#' 4c#'	.	.
=89	=89	=89
4BB' 4B'	1ddz 1ff#z 1bbz 1dddz	.
4AA' 4A'	.	.
4GG#' 4G#'	.	.
4FF#' 4F#'	.	.
=90	=90	=90
4EE' 4E'	1Bz 1ez 1g#z 1bz	.
4DD' 4D'	.	.
4CC#' 4C#'	.	.
4BBB' 4BB'	.	.
=91	=91	=91
4AAA' 4AA'	2.e 2.a 2.cc# 2.ee	ff
4BBB' 4BB'	.	.
4CC#' 4C#'	.	.
4DD' 4D'	[4d [4f# [4b [4dd	.
=92	=92	=92
4EE' 4E'	4d] 4f#] 4b] 4dd]	.
4r	2c# 2e 2a 2cc#	.
4EE' 4E'	.	.
4r	4B 4d 4e 4g#	.
=93	=93	=93
8AAAL	4A 4c# 4e 4a	fp
8AA	.	.
8GG#	4r	.
8AAJ	.	.
8GG#L	4r	.
8AA	.	.
8GG#	4a (4aa	.
8AAJ	.	.
=94	=94	=94
8BBBL	4gn 4ggn)	.
8AA	.	.
8GG#	4e' 4ee'	.
8AAJ	.	.
8CC#L	4a' 4aa'	.
8AA	.	.
8GG#	4g' 4gg'	.
8AAJ	.	.
=95	=95	=95
8DDL	4f#' 4ff#'	.
8AA	.	.
8GG#	4e' 4ee'	.
8AAJ	.	.
8EEL	4d' 4dd'	.
8AA	.	.
8GG#	4c#' 4cc#'	.
8AAJ	.	.
=96	=96	=96
8FF#L	4d' 4dd'	.
8AA	.	.
8GG#	4B' 4b'	.
8AAJ	.	.
8GG#L	4e' 4ee'	.
8AA	.	.
8GG#	4d' 4dd'	.
8AAJ	.	.
=97	=97	=97
*^	*	*
AAA8q	.	.	.
[1AA	2r	8c# 8cc#	fp
.	.	8aL	.
.	.	8g#	.
.	.	8aJ	.
.	4r	8bL	.
.	.	8a	.
.	(4A	8g#	.
.	.	8aJ	.
=98	=98	=98	=98
4Gn)	1AA_	8BL	.
.	.	8b	.
4E'	.	8a#	.
.	.	8bJ	.
4A'	.	8c#L	.
.	.	8cc#	.
4G'	.	8b#	.
.	.	8cc#J	.
=99	=99	=99	=99
4F#'	1AA_	8dL	.
.	.	8dd	.
4E'	.	8cc#	.
.	.	8ddJ	.
!	!	!LO:TX:b:i:t=cresc.	!
4D'	.	8eL	<
.	.	8ee	.
4C#'	.	8dd#	.
.	.	8eeJ	.
=100	=100	=100	=100
4D'	1AA]	8f#L	.
.	.	8ff#	.
4BB'	.	8ee#	.
.	.	8ff#J	.
4E'	.	8g#L	.
.	.	8gg#	.
4D'	.	8ff##	.
.	.	8gg#J	.
=101	=101	=101	=101
2r	[1AAA	8aL	ff
.	.	8aa	.
.	.	8gg#	.
.	.	8aaJ	.
4r	.	8bbL	.
.	.	8aa	.
(4AA	.	8gg#	.
.	.	8aaJ	.
=102	=102	=102	=102
4GGn')	1AAA_	8bL	.
.	.	8bb	.
4EE'	.	8aa#	.
.	.	8bbJ	.
4AA'	.	8cc#L	.
.	.	8ccc#	.
4GG'	.	8bb#	.
.	.	8ccc#J	.
=103	=103	=103	=103
4FF#'	1AAA_	8ddL	.
.	.	8ddd	.
4EE'	.	8ccc#	.
.	.	8dddJ	.
4DD'	.	8eeL	.
.	.	8eee	.
4CC#'	.	8ddd#	.
.	.	8eeeJ	.
=104	=104	=104	=104
4DD'	1AAA_	8ff#L	.
.	.	8eee	.
4BBB'	.	8ddd#	.
.	.	8eeeJ	.
4EE'	.	8gg#L	.
.	.	8eee	.
4DD'	.	8ddd#	.
.	.	8eeeJ	.
*v	*v	*	*
=105	=105	=105
4AAA] 4CC#	4aa	.
4r	4r	.
2e	(2ee	pp
=106	=106	=106
2f#	2ff#	.
2B	2b	.
=107	=107	=107
2e	2ee	.
2F# 2c#	2f# 2a#	.
=108	=108	=108
*^	*	*
1B	2D	2f# 2dd	.
.	2E	2d 2g#	.
*v	*v	*	*
=109	=109	=109
2AA 2A	2c# 2an)	.
2E#	(2e#	.
=110	=110	=110
2F#	2f#	.
2BB	2B	.
=111	=111	=111
2En	2en	.
2FF# 2C#	2F#j 2A#j	.
=112	=112	=112
*^	*	*
*	*^	*	*
2F# 2d	1BB	2DD	1r	.
2D 2G#	.	2EE	.	.
*v	*v	*	*	*
=113	=113	=113	=113
2C# 2An	[1AAA)	2r	.
4r	.	2r	.
(4AA	.	.	.
=114	=114	=114	=114
4GG#	1AAA]	2r	.
4FF#	.	.	.
4EE)	.	4r	.
4r	.	([4ee 4eee	pp
=115	=115	=115	=115
2r	[1AAA	4ee] 4ccc#	.
.	.	4dd 4bb	.
4r	.	4cc# 4aa)	.
(4AA	.	4r	.
=116	=116	=116	=116
4GG#	1AAA]	2r	.
4FF#	.	.	.
4EE)	.	4r	.
4r	.	(4dd 4ee	.
=117	=117	=117	=117
2r	[1AAA	4cc# 4aa	.
.	.	4dd 4bb	.
4r	.	4ee 4ccc#)	.
(4AA	.	4r	.
=118	=118	=118	=118
4GG#	1AAA]	2r	.
4FF#	.	.	.
4EE)	.	4r	.
!	!	!LO:S:a	!
4r	.	([4e 4ee	.
=119	=119	=119	=119
2r	[1AAA	4e] 4cc#	.
.	.	4d 4b	.
4r	.	4c# 4a)	.
(4AA	.	4r	.
=120	=120	=120	=120
4GGn	1AAA]	2r	.
4FF#	.	.	.
*	*	*clefF4	*
4EE)	.	4r	.
4r	.	(4A	pp
*v	*v	*	*
=121	=121	=121
2r	4Gn	.
.	4F#	.
*clefG2	*	*
4r	4E)	.
(4a	4r	.
=122	=122	=122
4g	2r	.
4f#	.	.
*	*clefG2	*
4e)	4r	.
4r	(4aa	.
=123	=123	=123
1r	4gg	.
.	4ff#	.
.	4ee)	.
.	4r	.
=124	=124	=124
2r	2r	.
4r	4r	.
=:|!	=:|!	=:|!
*>B	*>B	*>B
*clefF4	*	*
4r	(4aa	pp
=125	=125	=125
2r	4gg	.
.	4ffn	.
*clefG2	*	*
4r	4ee)	pp
(4a	4r	.
=126	=126	=126
4g	2r	.
4fn	.	.
*	*clefF4	*
4e)	4r	.
4r	(4A	.
=127	=127	=127
2r	4G	.
.	4Fn	.
*clefF4	*	*
4r	4E)	.
(4AA	4r	.
=128	=128	=128
4GG	2r	.
4FFn	.	.
4EE)	4r	.
(4DD	(4D 4d	.
=129	=129	=129
4CC#)	4c#')	.
4BBB'	4B'	.
4AAA'	4A'	.
4CC#'	4c#'	<
*	*clefG2	*
=130	=130	=130
4DD'	4d'	.
4FFn'	4fn'	.
4AAA' 4AA'	4A' 4a'	.
4CC#' 4C#'	4c#' 4cc#'	.
=131	=131	=131
4DD' 4D'	4d' 4dd'	.
4EE' 4E'	4e' 4ee'	.
4FFn' 4Fn'	4fn' 4ffn'	.
4GG' 4G'	4g' 4gg'	.
=132	=132	=132
1AA; 1A;	1a; 1aa;	ff
=133||	=133||	=133||
*k[b-]	*k[b-]	*
8BB-L	2.b- 2.dd 2.ff 2.bb-	ffp
8B-	.	.
8BB-	.	.
8B-J	.	.
8BB-L	.	.
8B-	.	.
8BB-	4dd' 4ff'	.
8B-J	.	.
=134	=134	=134
8BB-L	4ee-' 4gg'	.
8B-	.	.
8BB-	4cc' 4ee-'	.
8B-J	.	.
8BB-L	4dd' 4ff'	.
8B-	.	.
8BB-	4b-' 4dd'	.
8B-J	.	.
=135	=135	=135
8BB-L	4g' 4ee-'	.
8B-	.	.
8BB-	4e-' 4cc'	.
8B-J	.	.
8BB-L	4f' 4dd'	.
8B-	.	.
8BB-	4d' 4b-'	.
8B-J	.	.
=136	=136	=136
8BB-L	4e-' 4cc'	.
8B-	.	.
8BB-	4e-' 4g'	.
8B-J	.	.
8BB-L	4e-' 4a'	.
8B-	.	.
8BB-	4e-' 4f'	.
8B-J	.	.
=137	=137	=137
8BBB-L	2.d 2.b-	ffp
8BB-	.	.
8BBB-	.	.
8BB-J	.	.
8BBB-L	.	.
8BB-	.	.
8BBB-	4d' 4f'	.
8BB-J	.	.
=138	=138	=138
8BBB-L	4e-' 4g'	.
8BB-	.	.
8BBB-	4c' 4e-'	.
8BB-J	.	.
8BBB-L	4d' 4f'	.
8BB-	.	.
8BBB-	4B-' 4d'	.
8BB-J	.	.
*	*clefF4	*
=139	=139	=139
8BBB-L	4G' 4e-'	.
8BB-	.	.
8BBB-	4E-' 4c'	.
8BB-J	.	.
8BBB-L	4F' 4d'	.
8BB-	.	.
8BBB-	4D' 4B-'	.
8BB-J	.	.
=140	=140	=140
8BBB-L	4E-' 4c'	.
8BB-	.	.
8BBB-	4E-' 4G'	.
8BB-J	.	.
8BBB-L	4E-' 4A'	.
8BB-	.	.
8BBB-	4E-' 4F'	.
8BB-J	.	.
*	*clefG2	*
=141	=141	=141
2.BBB- 2.BB-	8B-L	ff
.	8d	.
.	8B-	.
.	8dJ	.
.	8B-L	.
.	8d	.
4AAA'	8B-	.
.	8dJ	.
=142	=142	=142
4BBB-'	8B-L	.
.	8d	.
4CC#'	8B-	.
.	8dJ	.
4DD'	8B-L	.
.	8d	.
4EEn'	8B-	.
.	8dJ	.
=143	=143	=143
4FF'	8B-L	.
.	8d	.
4AA'	8B-	.
.	8dJ	.
4BB-X'	8B-L	.
.	8d	.
4C#'	8B-	.
.	8dJ	.
=144	=144	=144
4D'	8B-L	.
.	8d	.
4En'	8B-	.
.	8dJ	.
4F'	8B-L	.
.	8d	.
4A'	8B-	.
.	8dJ	.
=145	=145	=145
8B-L	2r	.
8d	.	.
8c#	.	.
8dJ	.	.
8B-L	4f'z 4ff'z	.
8d	.	.
8c#	4r	.
8dJ	.	.
=146	=146	=146
8AL	2r	.
8cn	.	.
8Bn	.	.
8cJ	.	.
8AL	4f#' 4ff#'	.
8c	.	.
8B	4r	.
8cJ	.	.
=147	=147	=147
8F#L	4r	.
8A	.	.
8d	8r	.
8AJ	8ccn	.
8EnL	[2cccn	.
8G	.	.
8d	.	.
8GJ	.	.
=148	=148	=148
8F#L	(8cccL]	.
8A	8bb-	.
8d	8aa	.
8AJ	8ggJ	.
8DL	8ff#L	.
8F#	8ee-	.
8d	8dd	.
8F#J	8ccJ)	.
=149	=149	=149
2.GGG 2.GG	4b-	.
.	8B-L	ff
.	8dJ	.
.	8B-L	.
.	8d	.
4FFF#'	8B-	.
.	8dJ	.
=150	=150	=150
4GGG'	8B-L	.
.	8d	.
4AAA'	8B-	.
.	8dJ	.
4BBB-'	8B-L	.
.	8d	.
4CC#'	8B-	.
.	8dJ	.
=151	=151	=151
4DD	8B-L	.
.	8d	.
4FF#'	8B-	.
.	8dJ	.
4GG'	8B-L	.
.	8d	.
4AA'	8B-	.
.	8dJ	.
=152	=152	=152
4BB-'	8B-L	.
.	8d	.
4C#'	8B-	.
.	8dJ	.
4D'	8B-L	.
.	8d	.
4F#'	8B-	.
.	8dJ	.
=153	=153	=153
8GL	2r	.
8B-	.	.
8d	.	.
8B-J	.	.
8dL	4g'z 4gg'z	.
8B-	.	.
8d	4r	.
8B-J	.	.
=154	=154	=154
8FnL	2r	.
8A-	.	.
8B-	.	.
8A-J	.	.
8E-L	4a-'z 4aa-'z	.
8A-	.	.
8B-	4r	.
8A-J	.	.
=155	=155	=155
8DL	4r	.
8A-	.	.
8B-	8r	.
8A-J	8ffz	.
8CL	[2fff	.
8A-	.	.
8B-	.	.
8A-J	.	.
=156	=156	=156
8DL	(8fffL]	.
8A-	8eee-	.
8B-	8ddd	.
8A-J	8cccJ	.
8BB-L	8bb-L	.
8A-	8aa-	.
8B-	8gg	.
8A-J	8ffJ)	.
=157	=157	=157
2.EE- 2.E-	4gg	ff
.	8B-L	.
.	8gJ	.
.	8B-L	.
.	8g	.
4DD'	8B-	.
.	8gJ	.
=158	=158	=158
4EE-'	8B-L	.
.	8g	.
4FF#'	8B-	.
.	8gJ	.
4GG'	8B-L	.
.	8g	.
4AAn'	8B-	.
.	8gJ	.
=159	=159	=159
4BB-'	8B-L	.
.	8g	.
4D'	8B-	.
.	8gJ	.
4E-'	8B-L	.
.	8g	.
4F#'	8B-	.
.	8gJ	.
=160	=160	=160
4G'	8B-L	.
.	8g	.
4Fn'	8B-	.
.	8gJ	.
4E-'	8B-L	.
.	8g	.
4D'	8B-	.
.	8gJ	.
=161	=161	=161
4C#'	8AL	.
.	8en	.
4r	8g	.
.	8eJ	.
*clefG2	*	*
4gg'	8AL	.
.	8e	.
4r	8g	.
.	8eJ	.
=162	=162	=162
4r	8AL	.
.	8e	.
*clefF4	*	*
8r	8g	.
(8C#	8eJ	.
8DL	8AL	.
8C#	8e	.
8BBn	8g	.
8C#J)	8eJ	.
=163	=163	=163
4D'	8AL	.
.	8d	.
4r	8fn	.
.	8dJ	.
*clefG2	*	*
4ffn'	8AL	.
.	8d	.
4r	8f	.
.	8dJ	.
=164	=164	=164
4r	8AL	.
.	8d	.
*clefF4	*	*
8r	8f	.
(8D	8dJ	.
8EL	8AL	.
8D	8d	.
8C#	8f	.
8DJ)	8dJ	.
=165	=165	=165
4BB-'	8G#L	.
.	8d	.
4r	8g#	.
.	8dJ	.
*clefG2	*	*
4ddd'	8G#L	.
.	8d	.
4r	8g#	.
.	8dJ	.
=166	=166	=166
4r	8G#L	.
.	8d	.
*clefF4	*	*
8r	8g#	.
(8BB-X	8dJ	.
8CnXL	8G#L	.
8BB-	8d	.
8AA	8g#	.
8BB-J)	8dJ	.
=167	=167	=167
4AA'	8AL	ff
.	8c#	.
4GGG#'	8a	.
.	8c#J	.
4AAA'	8AL	.
.	8c#	.
4BBB#'	8e	.
.	8c#J	.
=168	=168	=168
4CC#'	8AL	.
.	8c#	.
4DD#'	8e	.
.	8c#J	.
4EE'	8AL	.
.	8c#	.
4GG#'	8e	.
.	8c#J	.
=169	=169	=169
4AA'	8AL	.
.	8d	.
*clefG2	*	*
4g#'	8fn	.
.	8dJ	.
4a'	8AL	.
.	8d	.
4cc#'	8f	.
.	8dJ	.
=170	=170	=170
4dd'	8AL	.
.	8d	.
4ee'	8f	.
.	8dJ	.
4ffn'	8AL	.
.	8d	.
4gg#'	8f	.
.	8dJ	.
=171	=171	=171
4aa'	8AL	.
.	8c#	.
*clefF4	*	*
4GG#'	8e	f
.	8c#J	.
4AA'	8AL	.
.	8c#	.
4BB#'	8e	.
.	8c#J	.
=172	=172	=172
4C#'	8AL	.
.	8c#	.
4D#'	8e	.
.	8c#J	.
4E'	8AL	.
.	8c#	.
4G#'	8e	.
.	8c#J	.
=173	=173	=173
4r	8AL	.
.	8d	.
*clefG2	*	*
4g#'	8fn	.
.	8dJ	.
4a'	8AL	.
.	8d	.
4cc#'	8f	.
.	8dJ	.
=174	=174	=174
4dd'	8AL	.
.	8d	.
4ee'	8f	.
.	8dJ	.
4ffn'	8AL	.
.	8d	.
4gg#'	8f	.
.	8dJ	.
=175	=175	=175
4aa'	8AL	.
.	8c#	.
4r	8e	.
.	8c#J	.
2r	8AL	.
.	8c#	.
.	8e	.
.	8c#J	.
*clefF4	*	*
=176	=176	=176
4AA'z	8AL	.
.	8c#	.
4r	8e	.
.	8c#J	.
2r	8AL	.
.	8c#	.
.	8e	.
.	8c#J	.
*clefG2	*	*
=177	=177	=177
4ddd'z	8BnL	.
.	8d	.
4r	8g	.
.	8dJ	.
2r	8BL	.
.	8d	.
.	8g	.
.	8dJ	.
*clefF4	*	*
=178	=178	=178
4BBn'z	8BnL	.
.	8d	.
4r	8g	.
.	8dJ	.
2r	8BL	.
.	8d	.
.	8g	.
.	8dJ	.
*clefG2	*	*
=179	=179	=179
4eee'z	8AL	.
.	8e	.
4r	8g	.
.	8eJ	.
*clefF4	*	*
4C#'z	8AL	<
.	8e	.
4r	8g	.
.	8eJ	.
=180	=180	=180
2r	8AL	.
.	8e	.
.	8g	.
.	8eJ	.
*clefG2	*	*
4ee'z	8AL	.
.	8e	.
4r	8g	.
.	8eJ	.
*clefF4	*	*
=181	=181	=181
2r	8AL	ff
.	8e	.
.	8g	.
.	8eJ	.
4CC#'z	8AL	.
.	8e	.
4r	8g	.
.	8eJ	.
=182	=182	=182
2r	8AL	.
.	8e	.
.	8g	.
.	8eJ	.
*clefG2	*	*
4gg'z	8AL	.
.	8e	.
4r	8g	.
.	8eJ	.
*clefF4	*	*
=183	=183	=183
2.CC#; 2.AA; 2.C#;	2.A; 2.e; 2.g;	.
=||	=||	=||
*k[f#c#]	*k[f#c#]	*k[f#c#]
4DD\	4Dj (4d	p
=184	=184	=184
4CC#'	4c#')	.
4BBB'	4B'	.
4AAA'	4A'	.
4CC#'	4c#'	.
=185	=185	=185
4DD'	4d'	.
4FF#'	4f#'	.
4AAA' 4AA'	4A' 4a'	.
4CC#' 4C#'	4c#' 4cc#'	.
=186	=186	=186
4DD' 4D'	4d' 4dd'	.
4EE' 4E'	4e' 4ee'	.
4FF#' 4F#'	4f#' 4ff#'	.
4GG' 4G'	4g' 4gg'	.
=187	=187	=187
2.AA; 2.A;	2.a; 2.aa;	.
*clefG2	*	*
!LO:S:b	!LO:S:b	!
(4f# 4a	(4dd	p
=188	=188	=188
*	*^	*
4e 4g	2r	4cc#	.
4d 4f#	.	4b	.
4c# 4e	4r	4a	.
4d 4f#	4aa	4b	.
=189	=189	=189	=189
4c# 4e	2.aa	4a	.
4B 4d	.	4g	.
4A 4c#	.	4f#	.
4B 4d	4r	4g	.
*clefF4	*	*	*
=190	=190	=190	=190
4A 4c#	2r	4f#	.
4G 4B	.	4e	.
4F# 4A	4r	4d	.
4G 4B	4dd	4e	.
=191	=191	=191	=191
4F# 4A	4dd	4d	.
4E 4G	4cc#	4c#	.
4D 4F#)	4dd	4d	.
4r	[4dd#	[4d#)	.
=192	=192	=192	=192
4GG 4G	(4dd#]	4d#]	.
4r	4ee)	4e	.
4AA 4A	4cc#'	4g	.
4r	4a'	4ryy	.
=193	=193	=193	=193
4DD 4D	4ddn'	4f#	.
4r	2.ryy	4r	.
!	!	!LO:TX:b:i:t=cresc.	!
2r	.	4r	.
.	.	8ff#L	<
.	.	8dddJ	.
*	*v	*v	*
=194	=194	=194
2r	8eeL	.
.	8ccc#	.
.	8dd	.
.	8bbJ	.
4r	8cc#L	.
.	8aa	.
4AAA' 4AA'	8dd	.
.	8bbJ	.
=195	=195	=195
[1AAAz [1AAz	8cc#L	.
.	8aa	.
.	8b	.
.	8ggJ	.
.	8aL	.
.	8ff#	.
.	8b	.
.	8ggJ	.
=196	=196	=196
2.AAA] 2.AA]	8aL	.
.	8ff#	.
.	8g	.
.	8eeJ	.
.	8f#L	.
.	8dd#	.
4AAA#' 4AA#'	8g	.
.	8eeJ	.
=197	=197	=197
2.AAA#z 2.AA#z	8gL	.
.	8ee	.
.	8f#	.
.	8dd#J	.
.	8gL	.
.	8ee	.
4BBB' 4BB'	8gg	.
.	8eeeJ	.
=198	=198	=198
2.BBBz 2.BBz	8ggL	.
.	8eee	.
.	8ff#	.
.	8ddd#J	.
.	8ggL	.
.	8eee	.
4CCn' 4Cn'	8gg	.
.	8eeeJ	.
=199	=199	=199
2.CCnz 2.Cnz	8ggL	.
.	8eee	.
.	8ff#	.
.	8eeeJ	.
.	8eeL	.
.	8eee	.
4CC' 4C'	8dd#	.
.	8ddd#J	.
=200	=200	=200
2.CC#Xz 2.C#Xz	8eeL	.
.	8eee	.
.	8dd#	.
.	8ddd#J	.
.	8eeL	.
.	8eee	.
4CC#' 4C#'	8a#	.
.	8aa#J	.
=201	=201	=201
4BBB 4BB	8bL	.
.	8dd#	.
4r	8ff#	.
.	8bbJ	.
4r	8aanL	.
.	8gg	.
*clefG2	*	*
4B 4e 4g	8ff#	.
.	8eeJ	.
=202	=202	=202
4B 4d# 4f#	8dd#L	.
.	8ff#	.
4r	8aa#	.
.	8bbJ	.
4r	8aanL	.
.	8gg	.
4B 4e 4g	8ff#	.
.	8eeJ	.
=203	=203	=203
4B 4d# 4f#	8bbL	.
.	8ff#	.
4r	8dd#	.
.	8bJ	.
4r	8f#L	.
.	8d#J	.
*clefF4	*	*
(12BL	4r	.
12F#	.	.
12D#J)	.	.
=204	=204	=204
4BB'	2r	.
4r	.	.
2r	4r	.
.	4b'	p
=205	=205	=205
8EL	(2gg	.
8G	.	.
8B	.	.
8GJ	.	.
8D#L	2bb)	.
8F#	.	.
8B	.	.
8F#J	.	.
=206	=206	=206
8EL	2gg	.
8G	.	.
8B	.	.
8GJ	.	.
8BL	(8aaL	.
8G	8gg	.
8B	8ff#	.
8GJ	8eeJ)	.
=207	=207	=207
8BBL	4dd#'	.
8F#	.	.
8A	4dd#'	.
8BJ	.	.
8BBL	(8ff#L	.
8E	8ee	.
8G	8dd#	.
8BJ	8eeJ)	.
=208	=208	=208
8BBL	(2ff#	.
8D#	.	.
8F#	.	.
8A#J	.	.
8BL	4b')	.
8An	.	.
8G	4b'	.
8F#J	.	.
=209	=209	=209
*	*^	*
8EL	(2gg	4b	.
8G	.	.	.
8B	.	4b	.
8GJ	.	.	.
8D#L	2bb)	4b	.
8F#	.	.	.
8B	.	4b	.
8F#J	.	.	.
=210	=210	=210	=210
8EL	2gg	4b	.
8G	.	.	.
8B	.	4b	.
8GJ	.	.	.
8GL	(8aaL	4b	.
8B	8gg	.	.
8e	8ff#	4b	.
8BJ	8eeJ)	.	.
*	*v	*v	*
=211	=211	=211
8F#L	4ddn'	.
8B	.	.
8d	4dd'	.
8BJ	.	.
8F#L	(8ddL	.
8A#	8cc#	.
8c#	8b	.
8A#J	8cc#J)	.
=212	=212	=212
8BBL	4b	.
8D	.	.
8F#	4r	.
8BJ	.	.
4BB	4r	.
4r	4f#	.
=213	=213	=213
*^	*	*
4r	[1F#	8cc#L	.
.	.	8f#	.
2c#z (2ez	.	8a#	.
.	.	8cc#J	.
.	.	8ddL	.
.	.	8f#	.
4B 4d	.	8b	.
.	.	8ddJ	.
=214	=214	=214	=214
4A# 4c#)	4F#]	8eeL	.
.	.	8f#	.
2.ryy	4r	8a#	.
.	.	8cc#J	.
.	2r	8ff#L	.
.	.	8ee	.
.	.	8dd	.
.	.	8cc#J	.
*v	*v	*	*
=215	=215	=215
4B' 4d'	8ddL	.
.	8b	.
4B' 4d'	8a#	.
.	8bJ	.
4c#' 4e'	8eeL	.
.	8b	.
4c#' 4e'	8a#	.
.	8bJ	.
=216	=216	=216
4d' 4f#'	8ff#L	.
.	8dd	.
4r	8cc#	.
.	8ddJ	.
2r	8eeL	.
.	8dd	.
.	8cc#	.
.	8ddJ	.
*clefG2	*	*
=217	=217	=217
*^	*	*
4r	[1A	8eeL	.
.	.	8a	.
2ez (2gz	.	8cc#	.
.	.	8eeJ	.
.	.	8ff#L	.
.	.	8a	.
4d 4f#	.	8dd	.
.	.	8ff#J	.
*v	*v	*	*
=218	=218	=218
4A] 4c# 4e)	8ggL	.
.	8a	.
4r	8cc#	.
.	8eeJ	.
2r	8aaL	.
.	8gg	.
.	8ff#	.
.	8eeJ	.
=219	=219	=219
4d' 4f#'	8ff#L	.
.	8dd	.
4d' 4f#'	8cc#	.
.	8ddJ	.
4e' 4g'	8ggL	.
.	8dd	.
4e' 4g'	8cc#	.
.	8ddJ	.
=220	=220	=220
4f#' 4a'	8aaL	.
.	8dd	.
4r	8cc#	.
.	8ddJ	.
2r	8eeL	.
.	8ff#	.
.	8gg	.
.	8aaJ	.
=221	=221	=221
8r	2.bb	.
8gL	.	.
8f#	.	.
8gJ	.	.
8aL	.	.
8b	.	.
8cc#	[4aa	.
8ddJ	.	.
=222	=222	=222
!	!LO:TX:b:i:t=cresc.	!
2.ee	8aaL]	<
.	8gg	.
.	8ff#	.
.	8ggJ	.
.	8aaL	.
.	8bb	.
4dd	8ccc#	.
.	8dddJ	.
=223	=223	=223
8cc#	1gg 1eee	.
*clefF4	*	*
8AL	.	.
8G#	.	.
8AJ	.	.
8BL	.	.
8c#	.	.
8d	.	.
8eJ	.	.
=224	=224	=224
8f#	1ff# [1ddd	.
8DL	.	.
8C#	.	.
8DJ	.	.
8EL	.	.
8F#	.	.
8G	.	.
8AJ	.	.
=225	=225	=225
1BB 1B	4gg# 4ddd]	ff
.	8ccc#L	>
.	8bbJ	)
.	8aaL	)
.	8gg#	)
.	8ff#	)
.	8eeJ	)
=226	=226	=226
1BBB 1BB	8ddL	)
.	8cc#	)
.	8b	)
.	8aJ	)
.	8g#L	)
.	8f#	)
.	8e	)
.	8dJ	]
=227	=227	=227
*^	*	*
2r	[1AAA	8c#L	.
.	.	8B	.
.	.	8A	.
.	.	8BJ	.
[2AAz	.	8c#L	.
.	.	8d	.
.	.	8e	.
.	.	8f#J	.
*v	*v	*	*
=228	=228	=228
2AAA] (2AA]	8gnL	.
.	8f#	.
.	8e	.
.	8f#J	.
2GGG 2GG)	8gL	.
.	8a	.
.	8b	.
.	8cc#J	.
=229	=229	=229
!	!LO:TX:b:i:t=cresc.	!
1FFF# 1FF#	8ddL	<
.	8ee-	.
.	8een	.
.	8ffnJ	.
.	8ff#L	.
.	8gg	.
.	8gg#	.
.	8aaJ	.
=230	=230	=230
2GGG 2GG	8bb-L	.
.	8bbn	.
.	8cccn	.
.	8ccc#J	.
2GGG# 2GG#	8dddL	.
.	8ccc#	.
.	8ddd	.
.	8ccc#J	.
=231	=231	=231
8AAAL	8dddL	ff
8AA	8aa	.
8D	8ff#	.
8AAJ	8ddJ	.
8DL	8aL	.
8AA	8f#	.
8D	8d	.
8AAJ	8ddJ	.
=232	=232	=232
8DL	4A	.
8AA	.	.
8D	4r	.
8AAJ	.	.
8C#L	(2eT	.
8AA	.	.
8C#	.	.
8AAJ	.	.
=233	=233	=233
4D	4d)	.
4DD	4r	.
.	(g8q	.
4r	(4f#)	p
4D (4F#	8eL	.
.	8dJ)	.
=234	=234	=234
4E 4G	(4c#	.
4AA)	4A)	.
.	(g8q	.
4r	(4f#)	.
4D (4F#	8eL	.
.	8dJ)	.
=235	=235	=235
4C# 4E	(4g#	.
4AA)	4a)	.
.	(gn8q	.
4r	(4f#)	.
4D (4F#	8eL	.
.	8dJ)	.
=236	=236	=236
4E 4G	(4c#	.
4AA)	4A)	.
4r	4ff#'	.
4F#'	4f#'	.
=237	=237	=237
4r	4dd'	.
4D'	4d'	.
4r	4b'	.
4BB'	4B'	.
=238	=238	=238
4r	4g'	.
4GG'	4G'	.
4r	4g#'	.
4GG#'	4G#'	.
=239	=239	=239
*^	*	*
4r	2.r	4a'	.
4AA'	.	4A'	.
4r	.	4c#'	.
4C#'	4AAA'	4r	.
*v	*v	*	*
=240	=240	=240
4r	4Dj' 4d'	.
4DD'	4r	.
.	(gg8q	.
4r	4ffn	p
4d (4fn	8eeL	.
.	8ddJ)	.
=241	=241	=241
4e 4g	(4cc#	.
4A)	4a)	.
.	(gg8q	.
4r	(4ffn)	.
4d (4fn	8eeL	.
.	8ddJ)	.
=242	=242	=242
4c# 4e	(4gg#	.
4A)	4aa)	.
.	(ggn8q	.
4r	(4ffn)	.
4d (4fn	8eeL	.
.	8ddJ)	.
=243	=243	=243
4e 4g	(4cc#	.
4A)	4a)	.
4r	4fffn'	.
4fn'	4ffn'	.
=244	=244	=244
4r	4ddd'	.
4d'	4dd'	.
4r	4bb-'	.
4B-'	4b-'	.
=245	=245	=245
4r	4gg'	.
4G'	4g'	.
4r	4ee'	.
4E'	4e'	.
=246	=246	=246
4r	4cc#'	.
4C#'	4c#'	.
2r	2r	.
=247	=247	=247
*	*^	*
2r	2.ryy	2r	.
*clefG2	*	*	*
4r	.	4r	.
(4dd	[4aa	4ff#X	p
=248	=248	=248	=248
4cc#	4aa]	2.gg	.
4b	2eeez	.	.
4a)	.	.	.
(4dd	4ddd	4ff#	.
=249	=249	=249	=249
4cc#	4aa	2.gg	.
4b	2eeez	.	.
4a)	.	.	.
(4dd	4ddd	4ff#	.
=250	=250	=250	=250
4g	4r	2dd 2ee	.
4g#	4bb	.	.
4a)	4r	2cc# 2ee	.
*clefF4	*	*	*
(4A	4aa	.	.
=251	=251	=251	=251
4d	8ff#L	4dd	.
.	8gg	.	.
4A	8ff#	4r	.
.	8eeJ	.	.
4F#)	4dd	4r	.
(4D	[4a	4d 4f#	pp
=252	=252	=252	=252
4C#	2.a]	2.e 2.g	.
4BB	.	.	.
4AA)	.	.	.
(4D/	[4a	4d 4f#	.
=253	=253	=253	=253
4C#	2.a]	2.e 2.g	.
4BB	.	.	.
4AA)	.	.	.
(4Cn	4f#	[4d	.
=254	=254	=254	=254
4BB	2.g	2.d]	.
4AA	.	.	.
4GG)	.	.	.
(4Cn	4f#	[4d	<
=255	=255	=255	=255
4BB	2.g	2.d]	.
4AA	.	.	.
4GG)	.	.	.
(4BB-	4e	[4cn	.
=256	=256	=256	=256
*^	*	*	*
2.ryy	4AA/	4fn	2.c]	.
.	4GG/	4g	.	.
.	4FFn/)	4a	.	.
4B-	([4cn	[4ccn	4e	.
=257	=257	=257	=257	=257
2.c]	4A	2.cc]	4fn	.
.	4G	.	4g	.
.	4Fn)	.	4a	.
*clefG2	*	*	*	*
4r	(4e	4bb-	[4ccn	.
=258	=258	=258	=258	=258
4fn	2.r	4aa	2.cc]	.
4g	.	4gg	.	.
4a)	.	4ffn	.	.
([4ccn	4b-	[4cccn	4ee	.
=259	=259	=259	=259	=259
2.cc]	4a	4ffn	2.ccc]	.
.	4g	4gg	.	.
.	4fn)	4aa	.	.
*clefF4	*	*	*	*
[4D	4Cn	4d	4f#	p
=260	=260	=260	=260	=260
2.D]	4BB-	4g	2.r	.
.	4AA	4a	.	.
.	4GG	4b-	.	.
[4d	4cn	[4dd	(4f#	.
=261	=261	=261	=261	=261
2.d]	4B-	2.dd]	4g	.
.	4A	.	4a	.
.	4G	.	4b-)	.
*clefG2	*	*	*	*
4r	4f#	(4cccn	[4dd	.
=262	=262	=262	=262	=262
4g	2.r	4bb-	2.dd]	.
4a	.	4aa	.	.
4b-	.	4gg)	.	.
[4dd	4ccn	[4ddd	(4ff#	.
=263	=263	=263	=263	=263
2.dd]	4b-	4gg	2.ddd]	.
.	4a	4aa)	.	.
.	4g	4bb-	.	.
*clefF4	*	*	*	*
4BB-	4AA-	[4B-	(4d	p
=264	=264	=264	=264	=264
2.BB 2.D	4GG	4e-	2.B-]	.
.	4FFn	4fn	.	.
.	4EE-	4g)	.	.
[4B-	4A-	(4dd	[4b-	.
=265	=265	=265	=265	=265
2.B-]	4G	4ee-	2.b-]	.
.	4Fn	4ffn	.	.
.	4E-	4gg)	.	.
*clefG2	*	*	*	*
4a-	4r	(4dd	[4b-	p
*v	*v	*	*	*
=266	=266	=266	=266
4g	4ee-	2b-]	.
4fn	4ffn)	.	.
4e-'	[2gg	4ee-'	.
4d'	.	4dd	.
=267	=267	=267	=267
4c#X'	2gg]	4cc#X'	<
4Bn'	.	4bn'	.
4A'	2cc# 2ee	4a'	.
4G'	.	4g'	.
*clefF4	*	*	*
*	*v	*v	*
=268	=268	=268
4F#' 4f#'	1az 1ddz 1ff#z 1aaz	.
4E' 4e'	.	.
4D' 4d'	.	.
4C#' 4c#'	.	.
=269	=269	=269
4BB' 4B'	1dz 1f#z 1bz 1ddz	.
4AA' 4A'	.	.
4GG' 4G'	.	.
4FF#' 4F#'	.	.
=270	=270	=270
4EE' 4E'	1gz 1bz 1eez 1ggz	.
4DD' 4D'	.	.
4CC#' 4C#'	.	.
4BBB' 4BB'	.	.
=271	=271	=271
4AAA' 4AA'	1Ez 1Az 1c#z 1ez	.
4GGG' 4GG'	.	.
4FFF#' 4FF#'	.	.
4EEE' 4EE'	.	.
=272	=272	=272
4DDD' 4DD'	2.A 2.d 2.f# 2.a	ff
4EEE' 4EE'	.	.
4FFF#' 4FF#'	.	.
4GGG' 4GG'	[4G [4B [4e [4g	.
=273	=273	=273
4AAA' 4AA'	4G] 4B] 4e] 4g]	.
4r	2F# 2A 2d 2f#	.
4AAA' 4AA'	.	.
4r	4E 4G 4A 4c#	.
=274	=274	=274
8DDL	4F# 4A 4d	fp
8D	.	.
8C#	4r	.
8DJ	.	.
8C#L	4r	.
8D	.	.
8C#	4dd (4ddd	.
8DJ	.	.
=275	=275	=275
8EEL	4ccn' 4cccn')	.
8D	.	.
8C#	4a' 4aa'	.
8DJ	.	.
8FF#L	4dd' 4ddd'	.
8D	.	.
8C#	4cc' 4ccc'	.
8DJ	.	.
=276	=276	=276
8GGL	4b' 4bb'	.
8D	.	.
8C#	4a' 4aa'	.
8DJ	.	.
8AAL	4g' 4gg'	.
8D	.	.
8C#	4f#' 4ff#'	.
8DJ	.	.
=277	=277	=277
8BBL	4g' 4gg'	.
8D	.	.
8C#	4e'\ 4ee'\	.
8DJ	.	.
8C#L	4a' 4aa'	.
8D	.	.
8C#	4g' 4gg'	.
8DJ	.	.
=278	=278	=278
*^	*	*
2.D	[1DD	8f# 8ff#	fp
.	.	8dL	.
.	.	8c#	.
.	.	8dJ	.
.	.	8eL	.
.	.	8d	.
(4D	.	8c#	.
.	.	8dJ	.
=279	=279	=279	=279
4Cn')	1DD_	8EL	.
.	.	8e	.
4AA'	.	8d#	.
.	.	8eJ	.
4D'	.	8F#L	.
.	.	8f#	.
4C'	.	8e#	.
.	.	8f#J	.
=280	=280	=280	=280
4BB'	1DD_	8GL	.
.	.	8g	.
4AA'	.	8f#	.
.	.	8gJ	.
4GG'	.	8AL	.
.	.	8a	.
4FF#'	.	8g#	.
.	.	8aJ	.
=281	=281	=281	=281
4GG'	1DD_	8BL	.
.	.	8b	.
4EE'	.	8a#	.
.	.	8bJ	.
4AA'	.	8c#L	.
.	.	8cc#	.
4GG'	.	8b#	.
.	.	8cc#J	.
=282	=282	=282	=282
4FF#	4DD]	8dL	.
.	.	8dd	.
!	!	!LO:TX:i:b:t=cresc.	!
2D	[2.Dz	8cc#	<
.	.	8ddJ	.
.	.	8eeL	.
.	.	8dd	.
(4d	.	8cc#	.
.	.	8ddJ	.
=283	=283	=283	=283
4cn)	1D_	8eL	.
.	.	8ee	.
4A'	.	8dd#	.
.	.	8eeJ	.
4d'	.	8f#L	.
.	.	8ff#	.
4c'	.	8ee#	.
.	.	8ff#J	ff
=284	=284	=284	=284
4B	1D_	8gL	.
.	.	8gg	.
4A'	.	8ff#	.
.	.	8ggJ	.
4G'	.	8aL	.
.	.	8aa	.
4F#'	.	8gg#	.
.	.	8aaJ	.
=285	=285	=285	=285
4G'	1D_	8bL	.
.	.	8bb	.
4E'	.	8aa#	.
.	.	8bbJ	.
4A'	.	8cc#L	.
.	.	8ccc#	.
4G'	.	8bb#	.
.	.	8ccc#J	.
*v	*v	*	*
=286	=286	=286
4D] 4F#	4dd 4ddd	.
4r	4r	.
*clefG2	*	*
2a	(2aa	pp
=287	=287	=287
2b	2bb	.
2e	2ee	.
=288	=288	=288
2a	2aa	.
*clefF4	*	*
2B (2f#	2b 2dd#	.
=289	=289	=289
*^	*	*
1e)	2E	2b 2gg	.
.	2A	2g 2cc#	.
*v	*v	*	*
=290	=290	=290
2D 2d	2f# 2dd)	.
2A#	(2a#	.
=291	=291	=291
2B	2b	.
2E	2e	.
=292	=292	=292
2An	2an	.
2BB 2F#	[2B 2d#	.
=293	=293	=293
*^	*^	*
1E	2EE	1g	2B] 2g	.
.	2AA	.	2G 2c#	.
*	*	*v	*v	*
*	*	*clefF4	*
=294	=294	=294	=294
*	*	*^	*
1D	2DD	2f#	1F# 1f#	<
.	2GG	2B	.	.
=295	=295	=295	=295	=295
1C#	2CC#	2e	1E 1e	.
.	2FF#	2A#	.	.
=296	=296	=296	=296	=296
1BB	2BBB	2d	1D 1d	.
.	2EE	2G	.	.
=297	=297	=297	=297	=297
1AA	2AAA	2c	1Cn 1cn	.
.	2DD	2F#	.	.
*	*	*v	*v	*
=298	=298	=298	=298
2r	[1GGG	4D 4G 4B)	f
.	.	4r	.
4r	.	2r	pp
(4GG	.	.	.
*	*	*clefG2	*
=299	=299	=299	=299
4FF#	1GGG]	2r	.
4EE	.	.	.
4DD)	.	4r	.
4r	.	[4dd 4ddd	pp
=300	=300	=300	=300
2r	[1GGG	4dd] 4bb	.
.	.	4ccn 4aa	.
4r	.	4b 4gg	.
(4GG	.	4r	.
=301	=301	=301	=301
*	*	*^	*
4FF#	1GGG]	2.r	2r	.
4EE	.	.	.	.
4DD)	.	.	4r	.
4r	.	4dd	4ccn	.
=302	=302	=302	=302	=302
2r	[1GGG	4gg	4b	.
.	.	4aa	4ccn	.
4r	.	4bb	4dd	.
(4GG	.	4r	4r	.
=303	=303	=303	=303	=303
4FF#	1GGG]	2.r	2r	.
4EE	.	.	.	.
4DD)	.	.	4r	.
4r	.	4dd	[4d	.
=304	=304	=304	=304	=304
2r	[1GGG	4b	4d]	.
.	.	4a	4cn	.
4r	.	4g	4B	.
(4GG	.	4r	4r	.
*	*	*v	*v	*
=305	=305	=305	=305
4FF#	1GGG]	2r	.
4EE	.	.	.
4DD)	.	4r	.
*	*	*clefF4	*
4r	.	4D	pp
*v	*v	*	*
=306	=306	=306
2r	4G	.
.	4A	.
*clefG2	*	*
4r	4B	.
(4d	4r	.
=307	=307	=307
4g	2r	.
4a	.	.
*	*clefG2	*
4b)	4r	.
4r	4dd	.
=308	=308	=308
2r	4gg	.
.	4aa	.
*clefF4	*	*
4r	4bb	.
(4DD	4r	.
=309	=309	=309
4GG	2r	.
4AA	.	.
*	*clefF4	*
4BB)	4r	.
4r	4D	.
=310	=310	=310
2r	4G	.
.	4A	.
*clefG2	*	*
4r	4B-	pp
(4d	4r	.
=311	=311	=311
4g	2r	.
4a	.	.
*	*clefG2	*
4b-)	4r	.
4r	4dd	.
=312	=312	=312
2r	4gg	.
.	4aa	.
*clefF4	*	*
4r	4bb-	.
(4DD	4r	.
=313	=313	=313
4GG	2r	.
4AA	.	.
*	*clefF4	*
4BB-)	4r	.
4r	4D	.
=314	=314	=314
2r	4Fn	.
.	4G	.
*clefG2	*	*
4r	4A-	.
(4d	4r	pp
=315	=315	=315
4fn	2r	.
4g	.	.
*	*clefG2	*
4a-)	4r	.
4r	4dd	.
=316	=316	=316
*^	*	*
2r	2.r	4ffn	.
.	.	4gg	.
*clefF4	*	*	*
4r	.	4aa-	.
([4BB-	4BB-	4r	.
=317	=317	=317	=317
4D	1BB-_	2r	.
4E-)	.	.	.
[2Fn	.	4r	.
.	.	[4A- [4a-	.
=318	=318	=318	=318
*	*	*^	*
(4Fn]	2.BB-]	(4d	2.A-] 2.a-]	.
4E-	.	4e-	.	.
4D)	.	4fn)	.	.
(4BB-	[4BB-	4r	4r	.
*	*	*v	*v	*
=319	=319	=319	=319
4D	1BB-_	2r	.
4E-)	.	.	.
[2Fnz	.	4r	.
.	.	[4A- [4a-	.
=320	=320	=320	=320
*	*	*^	*
(4Fn]	2.BB-]	4d	2.A-] 2.a-]	.
4E-	.	4e-	.	.
4D)	.	4fn	.	.
(4BB-	[4BB-	4r	[4G# [4g#	.
=321	=321	=321	=321	=321
4Fn	2.BB-]	4d	(2.G#] 2.g#]	.
4En	.	4en	.	.
4D)	.	4fn)	.	.
4BB-	[4BB-	4r	[4G# 4g#	.
=322	=322	=322	=322	=322
(4Fn	2.BB-]	4d	(2.G#]	.
4En	.	4en	.	.
4D)	.	4fn)	.	.
4AA	[4AA	4r	[4Gn [4gn	.
=323	=323	=323	=323	=323
(4C#	2.AA]	(4e	2.G] 2.gn]	.
4D	.	4d	.	.
4E)	.	4c#)	.	.
[4F#	(4AA#	4f#	[4f#	mf
=324	=324	=324	=324	=324
2.F#]	4BBn	2.f#]	4d	.
.	4C#	.	4c#	.
.	4D)	.	4Bn	.
[4E	(4FF#	4e	[4e	.
=325	=325	=325	=325	=325
2.E]	4GG	2.e] 2.g	4B	.
.	4AA	.	4A	.
.	4BB)	.	4G	.
[4G	[4AAAz	[4c#	4r	.
*v	*v	*	*	*
*	*v	*v	*
=326	=326	=326
*^	*	*
*	*^	*	*
(4G]	4EE/	1AAA]	2.c#]	.
*	*v	*v	*	*
4F#	4FF#	.	.
4E)	4GG	.	.
4E 4G	4AA	4c#	.
*v	*v	*	*
=327	=327	=327
*	*^	*
8DDL	2.ryy	4F#/ 4d/	.
8D	.	.	.
8C#	.	4r	.
8DJ	.	.	.
8C#L	.	4r	.
8D	.	.	.
8C#	(4ddd	(4ff#	p
8DJ	.	.	.
=328	=328	=328	=328
8C#L	4ccc#	2.gg)	.
8D	.	.	.
8C#	4bb	.	.
8DJ	.	.	.
8C#L	4aa)	.	.
8D	.	.	.
8C#	[4aa	(4gg	.
8DJ	.	.	.
=329	=329	=329	=329
8C#L	2.aa]	4ff#	.
8D	.	.	.
8C#	.	4ee	.
8DJ	.	.	.
8C#L	.	4dd)	.
8D	.	.	.
8C#	(4dd	(4f#	.
8DJ	.	.	.
=330	=330	=330	=330
8C#L	4cc#	2.g)	.
8D	.	.	.
8C#	4b	.	.
8DJ	.	.	.
8C#L	4a)	.	.
8D	.	.	.
8C#	[4a	(4g	.
8DJ	.	.	.
=331	=331	=331	=331
8C#L	2.a]	4f#	.
8D	.	.	.
8C#	.	4e	.
8DJ	.	.	.
8C#L	.	4d)	.
8D	.	.	.
8C#	4ryy	4F#j (4d	.
8DJ	.	.	.
*	*v	*v	*
=332	=332	=332
*^	*	*
2.G	8C#L	4c#	.
.	8D	.	.
.	8C#	4B	.
.	8DJ	.	.
.	8C#L	4A)	.
.	8D	.	.
4G	8C#	4A	.
.	8DJ	.	.
*v	*v	*	*
=333	=333	=333
8DDL	8F#L	p
8D	8d	.
8C#	8A	.
8DJ	8dJ	.
8BBL	8F#L	.
8D	8f#	.
8C#	8d	.
8DJ	8f#J	.
=334	=334	=334
!	!LO:TX:b:i:t=cresc.	!
8AAL	8F#L	<
8D	8f#	.
8C#	8d	.
8DJ	8f#J	.
8GGL	8GL	.
8D	8g	.
8BB	8e	.
8DJ	8gJ	.
=335	=335	=335
8FF#L	8AL	.
8D	8a	.
8AA	8f#	.
8DJ	8aJ	.
8GGL	8dL	.
8D	8dd	.
8BB	8f#	.
8DJ	8ddJ	.
=336	=336	=336
8FF#L	8dL	.
8D	8dd	.
8AA	8f#	.
8DJ	8ddJ	.
8EEL	8eL	.
8D	8ee	.
8GG	8g	.
8DJ	8eeJ	.
=337	=337	=337
8DDL	8f#L	.
8D	8ff#	.
8C#	8a	.
8DJ	8ff#J	.
8BBL	8f#L	.
8D	8ff#	.
8C#	8dd	.
8DJ	8ff#J	.
=338	=338	=338
8AAL	8f#L	.
8D	8ff#	.
8C#	8dd	.
8DJ	8ff#J	.
8GGL	8gL	.
8D	8gg	.
8BB	8ee	.
8DJ	8ggJ	.
=339	=339	=339
8FF#L	8aL	.
8D	8aa	.
8AA	8ff#	.
8DJ	8aaJ	.
8GGL	8ddL	.
8D	8ddd	.
8BB	8ff#	.
8DJ	8dddJ	.
=340	=340	=340
8FF#L	8ddL	.
8D	8ddd	.
8AA	8ff#	.
8DJ	8dddJ	.
8EEL	8eeL	.
8D	8ddd	.
8GG	8gg	.
8DJ	8dddJ	.
=341	=341	=341
4DD 4FF# 4D	8ee# 8gg#L	ff
.	8ddd	.
4r	8ff# 8aa	.
.	8dddJ	.
2r	8dd 8ff#L	.
.	8ddd	.
.	8een 8ggn	.
.	8dddJ	.
=342	=342	=342
4D 4F# 4d	8ee# 8gg#L	ff
.	8ddd	.
4r	8ff# 8aa	.
.	8dddJ	.
2r	8dd 8ff#L	.
.	8ddd	.
.	8een 8ggn	.
.	8dddJ	.
=343	=343	=343
4DD 4FF# 4D	4ff# 4aa 4ddd	sf
4r	4r	.
4DD 4FF# 4D	4dd 4ff# 4aa 4ddd	sf
4r	4r	.
=344	=344	=344
2r	2r	.
4r;	4r;	.
==	==	==
*-	*-	*-
!!!ENC: Craig Stuart Sapp
!!!END: 2008/02/04/
!!!RDF**kern: j = place on staff below
